azure-icons/command-1096-Editor-Column.svg

<svg xmlns="http://www.w3.org/2000/svg" viewBox="0 0 11 10"><path d="M0 0h11v1H0zm0 4V3h11v1zm0 3V6h11v1zm0 3V9h11v1z"/></svg>

<svg xmlns="http://www.w3.org/2000/svg" viewBox="0 0 11 10"><title>Asset 97Table</title><path d="M0,0H11V1H0ZM0,4V3H11V4ZM0,7V6H11V7Zm0,3V9H11v1Z"/></svg>
